res/skins/LateNight/palemoon/buttons/btn__collapse_dim.svg

<?xml version="1.0" encoding="UTF-8" standalone="no"?>
<svg
   xmlns:dc="http://purl.org/dc/elements/1.1/"
   xmlns:cc="http://creativecommons.org/ns#"
   xmlns:rdf="http://www.w3.org/1999/02/22-rdf-syntax-ns#"
   xmlns:svg="http://www.w3.org/2000/svg"
   xmlns="http://www.w3.org/2000/svg"
   id="svg10"
   version="1.1"
   height="18"
   width="16">
  <metadata
     id="metadata16">
    <rdf:RDF>
      <cc:Work
         rdf:about="">
        <dc:format>image/svg+xml</dc:format>
        <dc:type
           rdf:resource="http://purl.org/dc/dcmitype/StillImage" />
        <dc:title></dc:title>
      </cc:Work>
    </rdf:RDF>
  </metadata>
  <defs
     id="defs14" />
  <g
     id="g825"
     transform="translate(0.99970498,-0.00201898)">
    <path
       d="M 11.425164,16.637935 7,12.212676 2.574835,16.637935 1.4685439,15.531549 7,10 l 5.531456,5.531549 z"
       id="path2"
       style="fill:none;stroke:#000001;stroke-width:1.60000002;stroke-linejoin:round" />
    <path
       d="M 11.425164,1.3661361 6.999906,5.7913942 2.574647,1.3661361 1.4682619,2.4725212 6.999812,8.004071 12.531362,2.4725212 11.424977,1.3661361 Z"
       id="path4"
       style="fill:none;stroke:#000001;stroke-width:1.60000002;stroke-linejoin:round" />
  </g>
  <g
     id="g821"
     style="fill:#666668;fill-opacity:1"
     transform="translate(0.99970498,-0.00203568)">
    <path
       d="M 11.425164,16.637935 7,12.212676 2.574835,16.637935 1.4685439,15.531549 7,10 l 5.531456,5.531549 z"
       id="path6"
       style="fill:#666668;fill-opacity:1;stroke-width:0.93992448" />
    <path
       d="M 11.425164,1.3661365 6.999906,5.7913946 2.574647,1.3661365 1.4682619,2.4725216 6.999812,8.004071 12.531362,2.4725216 11.424977,1.3661365 Z"
       id="path8"
       style="fill:#666668;fill-opacity:1;stroke-width:0.93992448" />
  </g>
</svg>

<svg width="16" height="18" version="1.1" xmlns="http://www.w3.org/2000/svg">
  <g transform="translate(.999705 -.00201898)" fill="none" stroke="#000001" stroke-linejoin="round" stroke-width="1.6">
    <path d="m11.4252 16.6379-4.42516-4.42526-4.42516 4.42526-1.10629-1.10639 5.53146-5.53155 5.53146 5.53155z"/>
    <path d="m11.4252 1.36614-4.42526 4.42526-4.42526-4.42526-1.10639 1.10639 5.53155 5.53155 5.53155-5.53155-1.10638-1.10639z"/>
  </g>
  <g transform="translate(.999705 -.00203568)" fill="#666668" stroke-width=".939924">
    <path d="m11.4252 16.6379-4.42516-4.42526-4.42516 4.42526-1.10629-1.10639 5.53146-5.53155 5.53146 5.53155z"/>
    <path d="m11.4252 1.36614-4.42526 4.42526-4.42526-4.42526-1.10639 1.10639 5.53155 5.53155 5.53155-5.53155-1.10638-1.10639z"/>
  </g>
</svg>
